X: 11813
T: Elley's
R: waltz
M: 3/4
K: Gmajor
BA|"Gmaj" G2 GA Bd|"Dmaj"D2 DG FG|"Cmaj"E3F GA|"D7"FD DF Ad|
"Gmaj"G2 GA Bd|"Dmaj"D2 DG FG|"D7"BD DF AF|"Gmaj"G2 G2 BA|
"Gmaj"G2 GA Bd|"Dmaj"D2 DG FG|"Cmaj"E3F GA|"D7"FD DF Ad|
"Gmaj"G2 GA Bd|"Dmaj"D2 DG FG|"Cmaj"Bd dc "Dmaj"AF|"Gmaj"G4||
FG|"Dmaj"AF D2 GA|"Gmaj"BG D3 A/B/|"Amin7"c2 cA BG|"D7"A2 AG FG|
"Dmaj"AF D2 GA|"Gmaj"BA Bd gf|"Cmaj" (3efg dc "D7"AF|"Gmaj"G6||
FA|"Dmaj"AF D2 GA|"Gmaj"BG D3 A/B/|"Amin7"c2 cA BG|"D7"A2 AG FG|
"Dmaj"AF D2 GA|"Gmaj"BA Bd gf|"Cmaj" (3efg dc "D7"AF|"Gmaj"G2 G2||
Bd|"Cmaj"e2 ef ga|"D/b"d2 dc Bd|"Amin7"cA AB "D7"cd|"Gmaj"B2 "Amin7"BA "D/b"Bd|
"Cmaj"ef fg ga|"D/b"d2 dc Bd|"Amin7"gd dc "D7"AF|"Gmaj"G2 GA Bd|
"Cmaj"e2 ef ga|"D/b"d2 dc Bd|"Amin7"cA AB "D7"cd|"Gmaj"B2 "Amin7"BA "D/b"Bd|
"Cmaj"ef fg ga|"D/b"d2 dc Bd|"Amin7"gd dc AF|"Gmaj"G2 G2||

